img/icon.svg

<?xml version="1.0" encoding="UTF-8"?>
<svg width="250px" height="250px" viewBox="0 0 250 250" version="1.1" xmlns="http://www.w3.org/2000/svg" xmlns:xlink="http://www.w3.org/1999/xlink">
    <!-- Generator: Sketch 39 (31667) - http://www.bohemiancoding.com/sketch -->
    <title>Group</title>
    <desc>Created with Sketch.</desc>
    <defs>
        <linearGradient x1="50%" y1="0%" x2="50%" y2="100%" id="linearGradient-1">
            <stop stop-color="#C1C9C0" offset="0%"></stop>
            <stop stop-color="#82919B" offset="100%"></stop>
        </linearGradient>
    </defs>
    <g id="Page-1" stroke="none" stroke-width="1" fill="none" fill-rule="evenodd">
        <g id="Icon" transform="translate(-18.000000, -18.000000)">
            <g id="Group" transform="translate(18.000000, 18.000000)">
                <rect id="Rectangle" fill="url(#linearGradient-1)" x="0" y="0" width="250" height="250" rx="125"></rect>
                <path d="M109.183934,50.1943519 C113.973602,38.3327284 123.637354,30 123.637354,30 C123.637354,30 132.846587,37.9408125 137.740707,49.3534978 C146.717566,40.1322944 158.953792,36.0926337 158.953792,36.0926337 C158.953792,36.0926337 164.858946,47.8184755 164.570408,60.8320756 C176.584118,55.3923438 189.961325,56.3817247 189.961325,56.3817247 C189.961325,56.3817247 190.93915,69.6026811 185.605902,81.561399 C199.153173,80.8004874 211.711164,87.1247138 211.711164,87.1247138 C211.711164,87.1247138 207.518342,99.8248693 197.925263,108.840026 C210.252891,113.493031 219,123.637354 219,123.637354 C219,123.637354 211.059187,132.846587 199.646502,137.740707 C208.867706,146.717566 212.907366,158.953792 212.907366,158.953792 C212.907366,158.953792 201.181525,164.858946 188.167924,164.570408 C193.607656,176.584118 192.618275,189.961325 192.618275,189.961325 C192.618275,189.961325 178.992819,190.969067 166.894838,185.358597 C167.747589,198.999944 161.346197,211.711164 161.346197,211.711164 C161.346197,211.711164 147.818835,207.245248 138.775891,196.986115 C134.299637,209.806272 123.637354,219 123.637354,219 C123.637354,219 113.493031,210.252891 108.840026,197.925263 C99.8248693,207.518342 87.1247138,211.711164 87.1247138,211.711164 C87.1247138,211.711164 80.9075541,199.365775 81.5435214,185.951173 C69.6028073,191.250346 56.4320913,190.276237 56.4320913,190.276237 C56.4320913,190.276237 55.4258917,176.671628 61.0219506,164.580577 C48.4163553,164.55763 37.2888363,158.953792 37.2888363,158.953792 C37.2888363,158.953792 41.2246323,147.032174 50.1943519,138.090774 C38.3327284,133.301106 30,123.637354 30,123.637354 C30,123.637354 38.7471086,113.493031 51.0747373,108.840026 C41.4816585,99.8248693 37.2888363,87.1247138 37.2888363,87.1247138 C37.2888363,87.1247138 49.1996831,81.1263904 62.3352905,81.5160522 C57.5980617,69.9024378 58.509585,57.5779272 58.509585,57.5779272 C58.509585,57.5779272 71.0104663,56.6533596 82.6960074,61.5058241 C82.5729674,48.7025154 88.3209164,37.2888363 88.3209164,37.2888363 C88.3209164,37.2888363 100.242534,41.2246323 109.183934,50.194352 Z M156.05,136.060738 C155.789538,136.79151 156.014482,137.809799 155.694824,138.57651 C154.226765,151.514765 143.287357,163.267013 130.595749,165.531208 C129.305277,166.046342 127.778022,166.034362 126.452033,166.25 L121.597967,166.25 C120.271978,166.034362 118.744723,166.046342 117.454251,165.531208 C103.768152,163.147215 92.6220309,149.801644 92,135.94094 L92,131.867785 C92.4336694,129.160336 92.9852571,126.345067 94.0422597,123.757416 C95.1125222,121.672919 96.2147505,119.600403 97.4756238,117.647685 L101.500947,112.136946 C110.504649,101.307148 118.389547,89.674698 124.32098,77 L125.954787,80.5041107 C130.856211,92.5858054 138.5872,103.283826 147.02854,113.334933 C147.940157,114.688658 148.92281,116.006443 149.988336,117.288289 C151.574787,119.756141 153.125721,122.247953 154.368835,124.955403 C155.221257,127.243557 155.75402,129.711409 156.05,132.107383 L156.05,136.060738 Z" id="Combined-Shape" fill="#FFFFFF"></path>
            </g>
        </g>
    </g>
</svg>

<svg width="250" height="250" viewBox="0 0 250 250" xmlns="http://www.w3.org/2000/svg"><title>Group</title><defs><linearGradient x1="50%" y1="0%" x2="50%" y2="100%" id="a"><stop stop-color="#C1C9C0" offset="0%"/><stop stop-color="#82919B" offset="100%"/></linearGradient></defs><g fill="none" fill-rule="evenodd"><rect fill="url(#a)" width="250" height="250" rx="125"/><path d="M109.184 50.194C113.974 38.334 123.637 30 123.637 30s9.21 7.94 14.104 19.353c8.978-9.22 21.214-13.26 21.214-13.26s5.905 11.725 5.616 24.74c12.014-5.44 25.39-4.45 25.39-4.45s.98 13.22-4.354 25.178c13.547-.76 26.105 5.565 26.105 5.565s-4.192 12.7-13.785 21.715C210.253 113.493 219 123.637 219 123.637s-7.94 9.21-19.353 14.104c9.22 8.978 13.26 21.214 13.26 21.214s-11.725 5.905-24.74 5.616c5.44 12.014 4.45 25.39 4.45 25.39s-13.624 1.01-25.722-4.6c.853 13.64-5.55 26.35-5.55 26.35s-13.526-4.465-22.57-14.724C134.3 209.806 123.638 219 123.638 219s-10.144-8.747-14.797-21.075c-9.015 9.593-21.715 13.786-21.715 13.786s-6.217-12.344-5.58-25.76c-11.942 5.3-25.113 4.326-25.113 4.326s-1.006-13.604 4.59-25.695c-12.606-.022-23.733-5.626-23.733-5.626s3.935-11.922 12.904-20.863C38.334 133.3 30 123.638 30 123.638s8.747-10.144 21.075-14.797C41.482 99.825 37.29 87.125 37.29 87.125s11.91-6 25.045-5.61C57.598 69.903 58.51 57.58 58.51 57.58s12.5-.925 24.186 3.928C82.573 48.703 88.32 37.29 88.32 37.29s11.923 3.935 20.864 12.904zm46.866 85.867c-.26.732-.036 1.75-.355 2.517-1.468 12.938-12.408 24.69-25.1 26.954-1.29.516-2.817.504-4.143.72h-4.854c-1.326-.216-2.853-.204-4.144-.72-13.686-2.383-24.832-15.728-25.454-29.59v-4.072c.434-2.708.985-5.523 2.042-8.11 1.07-2.085 2.173-4.158 3.434-6.11l4.025-5.51c9.005-10.83 16.89-22.463 22.82-35.138l1.635 3.504c4.9 12.082 12.632 22.78 21.074 32.83.91 1.355 1.893 2.672 2.958 3.954 1.587 2.468 3.138 4.96 4.38 7.667.853 2.29 1.386 4.756 1.682 7.152v3.954z" fill="#FFF"/></g></svg>
